X:565
T:Pachelbel's Canon
C:Johann Pachelbel (1653-1706)
M:C
L:1/4
S:Colin Hume's website,  colinhume.com  - chords can also be printed below the stave.
N:Changed by Colin Hume to two beats to the bar rather than four.
Q:1/2=84
K:D
V:1 bass octave=-2
%%MIDI program 24
|: "^Play 28 times" "D"d4 | "A"A4 | "Bm"B4 | "F#m"F4 | "G"G4 | "D"D4 | "G"G4 | "A"A4 :| "D"D4 |]
V:1 treble octave=0
K:D
%%MIDI gchordoff
| !segno!"^Violin 1 starts after 8 bars."f4 | e4 | d4 | c4 | B4 | A4 | B4 | c4 | !segno!"^Violin 2 starts when violin 1 gets here."d4 | c4 | B4 | A4 | G4 | F4 | G4 | E4 |
!segno!"^Violin 3 starts when violin 1 gets here."D2F2 | A2G2 | F2D2 | F2E2 | D2B,2 | D2A2 | G2B2 | A2G2 |
F2D2 | E2c2 | d2f2 | a2A2 | B2G2 | A2F2 | D2d2 | Td3c |
dcdD | CAEF | DdcB | cfab | gfeg | fedc | BAGF | EGFE |
DEFG | AEAG | FBAG | AGFE | DB,Bc | dcBA | GFEB | ABAG |
F2f2 | e4 | z2d2 | f4 | b4 | a4 | b4 | c'4 |
d'2d2 | c4 | z2B2 | d4 | d4- | d2 d2 | d2g2 | e2a2 |
af/g/ af/g/ | a/A/B/c/ d/e/f/g/ | fd/e/ fF/G/ | A/B/A/G/ A/F/G/A/ |
GB/A/ GF/E/ | F/E/D/E/ F/G/A/B/ | GB/A/ Bc/d/ | A/B/c/d/ e/f/g/a/ |
fd/e/ fe/d/ | e/c/d/e/ f/e/d/c/ | dB/c/ dD/E/ | F/G/F/E/ F/d/c/d/ |
Bd/c/ BA/G/ | A/G/F/G/ A/B/c/d/ | Bd/c/ dc/B/ | c/d/e/d/ c/d/B/c/ |
d2z2 | c2z2 | B2z2 | d2z2 | D2z2 | D2z2 | D2z2 | E2z2 |
z2A2 | z2A2 | z2F2 | z2A2 | z2G2 | z2F2 | z2G2 | z2e2 |
fFGF | Eefe | dFDB | AA,G,A, | B,BcB | AA,G,A, | B,BAB | cCB,C |
Dded | cCDC | B,BAB | cCFE | Ddeg | fFAf | dgfg | eAGA |
FAAA | AAAA | FFFF | FFAA | GGGd | dddd | ddBB | AAec |
Afff | eeee | dddd | aaaa | bbbb | aaaa | bbbb | c'ccc |
dD/E/FD | Cc/d/ec | BB,/C/DB, | CA/G/FE |
DG/F/EG | FD/E/FA | GB/A/GF | EA/G/FE |
Fd/c/dF | AA/B/cA | Fd/e/fd | ff/e/dc |
BB/A/Bc | df/e/df | gd/c/BB | AEAA |
A4- | A2 A2 | D4- | D2 A2 | G4 | A4 | G2D2 | TD3C |
D2d2 | c4 | B4 | A4 | D3E | F4 | B4 | E3E |
F3f | fgfe | d3d | dedc | B4 | d4 | d=cBc | A3A |
A3a | abag | f3f | fgfe | d=cBc | A3A | G2d2 | ^c3c |
d2 d2- | d2 c2- | c2 B2- | B2 A2- | A2 G2- | G2 F2- | F3E | E4 |
F2 f2- | f2 e2 | d2 d'2- | d'2 =c'2 | b4 | d'2a2 | b4 | a4 |
a4 | A3G | F4 | f3e | d4- | d2 d2 | d4 | c4 |
!segno!"^Violin 3 stops here."d2D2 | C2c2 | B2B,2 | A,2A2 | G2g2 | f2F2 | E2B2 | E2e2 |
!segno!"^Violin 2 stops here."f2F2 | E2e2 | d2D2 | C2c2 | B2b2 | a2A2 | G3e | A2A2 | A4 |]

